public/new/svg23.svg

<svg fill="none" height="28" viewBox="0 0 28 28" width="28" xmlns="http://www.w3.org/2000/svg"><g clip-rule="evenodd" fill="#77787e" fill-rule="evenodd"><path d="m4.5 5.00056c-.39782 0-.77935.15804-1.06066.43934-.2813.28131-.43934.66284-.43934 1.06066 0 .39783.15804.77936.43934 1.06067.28131.2813.66284.43934 1.06066.43934.39783 0 .77936-.15804 1.06066-.43934.28131-.28131.43934-.66284.43934-1.06067 0-.39782-.15803-.77935-.43934-1.06066-.2813-.2813-.66283-.43934-1.06066-.43934zm-2.5 1.5c-.00062-.61997.22914-1.21806.64469-1.67816.41554-.4601.98723-.74938 1.60406-.81169.61684-.06231 1.23482.10681 1.73399.47451.49916.36771.84389.90777.96726 1.51534h17.05v1h-17.05c-.12337.60758-.4681 1.14764-.96726 1.51535-.49917.3677-1.11715.53682-1.73399.47451-.61683-.06231-1.18852-.35159-1.60406-.81169-.41555-.4601-.64531-1.05819-.64469-1.67817zm2.5 8.50004c-.39782 0-.77935.158-1.06066.4393-.2813.2813-.43934.6628-.43934 1.0607 0 .3978.15804.7793.43934 1.0606.28131.2813.66284.4394 1.06066.4394.39783 0 .77936-.1581 1.06066-.4394.28131-.2813.43934-.6628.43934-1.0606 0-.3979-.15803-.7794-.43934-1.0607-.2813-.2813-.66283-.4393-1.06066-.4393zm-2.5 1.5c-.00062-.62.22914-1.2181.64469-1.6782.41554-.4601.98723-.7494 1.60406-.8117.61684-.0623 1.23482.1068 1.73399.4745.49916.3677.84389.9078.96726 1.5154h13.1c.1239-.6071.4688-1.1464.9678-1.5136s1.1166-.536 1.733-.4738c.6164.0623 1.1877.3512 1.6032.8108s.6455 1.057.6455 1.6766c0 .6195-.23 1.217-.6455 1.6765-.4155.4596-.9868.7485-1.6032.8108s-1.234-.1065-1.733-.4737-.8439-.9066-.9678-1.5136h-13.1c-.12337.6075-.4681 1.1476-.96726 1.5153-.49917.3677-1.11715.5368-1.73399.4745-.61683-.0623-1.18852-.3516-1.60406-.8117-.41555-.4601-.64531-1.0582-.64469-1.6781zm20.5-1.5c-.3978 0-.7794.158-1.0607.4393s-.4393.6628-.4393 1.0607c0 .3978.158.7793.4393 1.0606s.6629.4394 1.0607.4394.7794-.1581 1.0607-.4394.4393-.6628.4393-1.0606c0-.3979-.158-.7794-.4393-1.0607s-.6629-.4393-1.0607-.4393zm-18 6c-.39782 0-.77935.158-1.06066.4393-.2813.2813-.43934.6628-.43934 1.0607 0 .3978.15804.7793.43934 1.0606.28131.2813.66284.4394 1.06066.4394.39783 0 .77936-.1581 1.06066-.4394.28131-.2813.43934-.6628.43934-1.0606 0-.3979-.15803-.7794-.43934-1.0607-.2813-.2813-.66283-.4393-1.06066-.4393zm-2.5 1.5c-.00062-.62.22914-1.2181.64469-1.6782.41554-.4601.98723-.7494 1.60406-.8117.61684-.0623 1.23482.1068 1.73399.4745.49916.3677.84389.9078.96726 1.5154h17.05v1h-17.05c-.12337.6075-.4681 1.1476-.96726 1.5153-.49917.3677-1.11715.5368-1.73399.4745-.61683-.0623-1.18852-.3516-1.60406-.8117-.41555-.4601-.64531-1.0582-.64469-1.6781z"/><path d="m22.3996 8.9393-1.39.63-.41-.91 1.39-.63zm-4 1.8-1.39.63-.41-.91 1.39-.63zm-4 1.8-1.4.63-.4-.91 1.39-.63zm-4 1.8-1.39999.63-.4-.91 1.39-.63z"/></g></svg>

<svg width="28" height="28" viewBox="0 0 28 28" fill="none" xmlns="http://www.w3.org/2000/svg">
<path fill-rule="evenodd" clip-rule="evenodd" d="M4.5 5.00056C4.10218 5.00056 3.72065 5.1586 3.43934 5.4399C3.15804 5.72121 3 6.10274 3 6.50056C3 6.89839 3.15804 7.27992 3.43934 7.56123C3.72065 7.84253 4.10218 8.00057 4.5 8.00057C4.89783 8.00057 5.27936 7.84253 5.56066 7.56123C5.84197 7.27992 6 6.89839 6 6.50056C6 6.10274 5.84197 5.72121 5.56066 5.4399C5.27936 5.1586 4.89783 5.00056 4.5 5.00056ZM2 6.50056C1.99938 5.88059 2.22914 5.2825 2.64469 4.8224C3.06023 4.3623 3.63192 4.07302 4.24875 4.01071C4.86559 3.9484 5.48357 4.11752 5.98274 4.48522C6.4819 4.85293 6.82663 5.39299 6.95 6.00056H24V7.00056H6.95C6.82663 7.60814 6.4819 8.1482 5.98274 8.51591C5.48357 8.88361 4.86559 9.05273 4.24875 8.99042C3.63192 8.92811 3.06023 8.63883 2.64469 8.17873C2.22914 7.71863 1.99938 7.12054 2 6.50056ZM4.5 15.0006C4.10218 15.0006 3.72065 15.1586 3.43934 15.4399C3.15804 15.7212 3 16.1027 3 16.5006C3 16.8984 3.15804 17.2799 3.43934 17.5612C3.72065 17.8425 4.10218 18.0006 4.5 18.0006C4.89783 18.0006 5.27936 17.8425 5.56066 17.5612C5.84197 17.2799 6 16.8984 6 16.5006C6 16.1027 5.84197 15.7212 5.56066 15.4399C5.27936 15.1586 4.89783 15.0006 4.5 15.0006ZM2 16.5006C1.99938 15.8806 2.22914 15.2825 2.64469 14.8224C3.06023 14.3623 3.63192 14.073 4.24875 14.0107C4.86559 13.9484 5.48357 14.1175 5.98274 14.4852C6.4819 14.8529 6.82663 15.393 6.95 16.0006H20.05C20.1739 15.3935 20.5188 14.8542 21.0178 14.487C21.5168 14.1198 22.1344 13.951 22.7508 14.0132C23.3672 14.0755 23.9385 14.3644 24.354 14.824C24.7695 15.2836 24.9995 15.881 24.9995 16.5006C24.9995 17.1201 24.7695 17.7176 24.354 18.1771C23.9385 18.6367 23.3672 18.9256 22.7508 18.9879C22.1344 19.0502 21.5168 18.8814 21.0178 18.5142C20.5188 18.147 20.1739 17.6076 20.05 17.0006H6.95C6.82663 17.6081 6.4819 18.1482 5.98274 18.5159C5.48357 18.8836 4.86559 19.0527 4.24875 18.9904C3.63192 18.9281 3.06023 18.6388 2.64469 18.1787C2.22914 17.7186 1.99938 17.1205 2 16.5006ZM22.5 15.0006C22.1022 15.0006 21.7206 15.1586 21.4393 15.4399C21.158 15.7212 21 16.1027 21 16.5006C21 16.8984 21.158 17.2799 21.4393 17.5612C21.7206 17.8425 22.1022 18.0006 22.5 18.0006C22.8978 18.0006 23.2794 17.8425 23.5607 17.5612C23.842 17.2799 24 16.8984 24 16.5006C24 16.1027 23.842 15.7212 23.5607 15.4399C23.2794 15.1586 22.8978 15.0006 22.5 15.0006ZM4.5 21.0006C4.10218 21.0006 3.72065 21.1586 3.43934 21.4399C3.15804 21.7212 3 22.1027 3 22.5006C3 22.8984 3.15804 23.2799 3.43934 23.5612C3.72065 23.8425 4.10218 24.0006 4.5 24.0006C4.89783 24.0006 5.27936 23.8425 5.56066 23.5612C5.84197 23.2799 6 22.8984 6 22.5006C6 22.1027 5.84197 21.7212 5.56066 21.4399C5.27936 21.1586 4.89783 21.0006 4.5 21.0006ZM2 22.5006C1.99938 21.8806 2.22914 21.2825 2.64469 20.8224C3.06023 20.3623 3.63192 20.073 4.24875 20.0107C4.86559 19.9484 5.48357 20.1175 5.98274 20.4852C6.4819 20.8529 6.82663 21.393 6.95 22.0006H24V23.0006H6.95C6.82663 23.6081 6.4819 24.1482 5.98274 24.5159C5.48357 24.8836 4.86559 25.0527 4.24875 24.9904C3.63192 24.9281 3.06023 24.6388 2.64469 24.1787C2.22914 23.7186 1.99938 23.1205 2 22.5006Z" fill="#77787E"/>
<path fill-rule="evenodd" clip-rule="evenodd" d="M22.3996 8.9393L21.0096 9.5693L20.5996 8.6593L21.9896 8.0293L22.3996 8.9393ZM18.3996 10.7393L17.0096 11.3693L16.5996 10.4593L17.9896 9.8293L18.3996 10.7393ZM14.3996 12.5393L12.9996 13.1693L12.5996 12.2593L13.9896 11.6293L14.3996 12.5393ZM10.3996 14.3393L8.99961 14.9693L8.59961 14.0593L9.98961 13.4293L10.3996 14.3393Z" fill="#77787E"/>
</svg>
